X: ~
T: ~
M: 2/4
L: 1/8
R: polka
K: A dorian
|: B/d/ |
eA BA | eA BA | G>A Bd | GA B/c/d |
eA BA | eA A2 | G>A Bd | BA A :|
|: f/g/ |
a2 gf | a2 gf | dB G>A | Bc d/e/f/g/ |
ab/a/ gf | a2 a/g/f | d/c/B gB | BA A :|
